flaticon/programming-line/bugs-search-1.svg

<svg xmlns="http://www.w3.org/2000/svg" width="32" height="32" viewBox="0 0 24 24">
    <path d="M 15.382812 0 C 10.628906 0 6.761719 3.867188 6.761719 8.617188 C 6.761719 10.867188 7.628906 12.917969 9.046875 14.457031 L 7.949219 15.554688 C 7.925781 15.574219 7.90625 15.601562 7.894531 15.625 C 7.660156 15.480469 7.394531 15.40625 7.117188 15.40625 C 6.71875 15.40625 6.347656 15.558594 6.070312 15.839844 L 0.433594 21.472656 C 0.152344 21.753906 0 22.125 0 22.519531 C 0 22.914062 0.152344 23.289062 0.433594 23.566406 C 0.710938 23.847656 1.085938 24 1.480469 24 C 1.875 24 2.246094 23.847656 2.527344 23.566406 L 8.160156 17.929688 C 8.441406 17.652344 8.59375 17.28125 8.59375 16.882812 C 8.59375 16.605469 8.519531 16.339844 8.375 16.105469 C 8.398438 16.09375 8.425781 16.074219 8.445312 16.050781 L 9.542969 14.953125 C 11.082031 16.371094 13.132812 17.238281 15.382812 17.238281 C 20.132812 17.238281 24 13.371094 24 8.617188 C 24 3.867188 20.132812 0 15.382812 0 Z M 2.027344 23.070312 C 1.882812 23.214844 1.6875 23.296875 1.480469 23.296875 C 1.273438 23.296875 1.078125 23.214844 0.929688 23.070312 C 0.785156 22.921875 0.703125 22.726562 0.703125 22.519531 C 0.703125 22.3125 0.785156 22.117188 0.929688 21.972656 L 5.941406 16.960938 L 7.039062 18.058594 Z M 7.664062 17.433594 L 7.535156 17.558594 L 6.441406 16.464844 L 6.566406 16.335938 C 6.714844 16.191406 6.910156 16.109375 7.117188 16.109375 C 7.324219 16.109375 7.515625 16.191406 7.664062 16.335938 C 7.808594 16.484375 7.890625 16.675781 7.890625 16.882812 C 7.890625 17.089844 7.808594 17.285156 7.664062 17.433594 Z M 15.382812 16.53125 C 11.019531 16.53125 7.46875 12.980469 7.46875 8.617188 C 7.46875 4.253906 11.019531 0.703125 15.382812 0.703125 C 19.746094 0.703125 23.296875 4.253906 23.296875 8.617188 C 23.296875 12.980469 19.746094 16.53125 15.382812 16.53125 Z M 15.382812 16.53125"/>
    <path d="M22.21875 6.640625C21.753906 5.035156 20.730469 3.636719 19.335938 2.703125 19.171875 2.59375 18.953125 2.636719 18.847656 2.796875 18.738281 2.960938 18.78125 3.179688 18.941406 3.285156 20.199219 4.128906 21.125 5.390625 21.542969 6.835938 21.585938 6.988281 21.726562 7.089844 21.878906 7.089844 21.910156 7.089844 21.945312 7.085938 21.976562 7.074219 22.164062 7.023438 22.273438 6.828125 22.21875 6.640625zM14.667969 14.988281C13.261719 14.835938 11.972656 14.230469 10.945312 13.246094 10.804688 13.113281 10.582031 13.117188 10.449219 13.257812 10.3125 13.398438 10.316406 13.621094 10.457031 13.757812 11.582031 14.832031 13.050781 15.519531 14.589844 15.691406 14.605469 15.691406 14.617188 15.691406 14.628906 15.691406 14.808594 15.691406 14.960938 15.558594 14.980469 15.378906 15 15.1875 14.863281 15.011719 14.667969 14.988281zM9.683594 11.558594C9.59375 11.386719 9.382812 11.320312 9.207031 11.40625 9.035156 11.496094 8.96875 11.710938 9.058594 11.882812 9.179688 12.117188 9.316406 12.351562 9.464844 12.570312 9.53125 12.671875 9.644531 12.726562 9.757812 12.726562 9.824219 12.726562 9.894531 12.710938 9.953125 12.667969 10.113281 12.5625 10.160156 12.339844 10.050781 12.179688 9.917969 11.980469 9.792969 11.773438 9.683594 11.558594zM16.808594 2.367188C17.039062 2.417969 17.269531 2.484375 17.492188 2.5625 17.53125 2.578125 17.570312 2.582031 17.609375 2.582031 17.753906 2.582031 17.890625 2.492188 17.941406 2.347656 18.007812 2.164062 17.910156 1.960938 17.726562 1.898438 17.476562 1.8125 17.21875 1.738281 16.960938 1.679688 16.773438 1.636719 16.585938 1.753906 16.542969 1.945312 16.5 2.132812 16.617188 2.324219 16.808594 2.367188zM19.484375 8.171875C19.464844 8.074219 19.402344 7.988281 19.316406 7.9375 19.226562 7.886719 19.125 7.875 19.027344 7.910156L18.289062 8.15625C18.230469 7.855469 18.148438 7.574219 18.039062 7.308594L18.546875 7.054688C18.613281 7.019531 18.667969 6.964844 18.703125 6.898438L19.453125 5.394531C19.542969 5.21875 19.46875 5.007812 19.296875 4.921875 19.121094 4.835938 18.910156 4.90625 18.824219 5.078125L18.125 6.476562 17.71875 6.679688C17.414062 6.195312 17.011719 5.808594 16.554688 5.5625L17.199219 4.265625C17.285156 4.09375 17.214844 3.882812 17.042969 3.792969 16.867188 3.707031 16.65625 3.777344 16.570312 3.953125L15.886719 5.316406C15.722656 5.28125 15.554688 5.261719 15.382812 5.261719 15.207031 5.261719 15.039062 5.28125 14.875 5.316406L14.195312 3.953125C14.105469 3.777344 13.894531 3.707031 13.722656 3.792969 13.546875 3.882812 13.476562 4.09375 13.5625 4.265625L14.210938 5.5625C13.75 5.808594 13.351562 6.195312 13.042969 6.679688L12.636719 6.476562 11.9375 5.078125C11.851562 4.90625 11.640625 4.835938 11.464844 4.921875 11.292969 5.007812 11.222656 5.21875 11.308594 5.394531L12.0625 6.898438C12.09375 6.964844 12.148438 7.019531 12.21875 7.054688L12.722656 7.308594C12.613281 7.574219 12.53125 7.855469 12.476562 8.15625L11.734375 7.910156C11.640625 7.875 11.535156 7.886719 11.449219 7.9375 11.359375 7.988281 11.296875 8.074219 11.277344 8.171875L10.902344 10.050781C10.863281 10.242188 10.988281 10.429688 11.179688 10.464844 11.203125 10.472656 11.226562 10.472656 11.25 10.472656 11.414062 10.472656 11.558594 10.359375 11.59375 10.191406L11.890625 8.703125 12.402344 8.875C12.402344 8.914062 12.398438 8.953125 12.398438 8.992188 12.398438 9.417969 12.457031 9.824219 12.558594 10.203125 12.539062 10.214844 12.519531 10.230469 12.503906 10.246094L11.75 11C11.636719 11.113281 11.613281 11.292969 11.699219 11.429688L12.824219 13.308594C12.890625 13.417969 13.007812 13.480469 13.128906 13.480469 13.1875 13.480469 13.25 13.464844 13.308594 13.429688 13.476562 13.328125 13.53125 13.113281 13.429688 12.945312L12.445312 11.304688 12.828125 10.917969C13.351562 12.003906 14.300781 12.726562 15.382812 12.726562 16.464844 12.726562 17.414062 12.003906 17.9375 10.917969L18.320312 11.304688 17.332031 12.945312C17.234375 13.113281 17.289062 13.328125 17.453125 13.429688 17.511719 13.464844 17.574219 13.480469 17.636719 13.480469 17.753906 13.480469 17.871094 13.417969 17.9375 13.308594L19.066406 11.429688C19.148438 11.292969 19.125 11.113281 19.011719 11L18.261719 10.246094C18.242188 10.230469 18.222656 10.214844 18.203125 10.203125 18.308594 9.824219 18.363281 9.417969 18.363281 8.992188 18.363281 8.953125 18.363281 8.914062 18.363281 8.875L18.871094 8.703125 19.167969 10.191406C19.203125 10.359375 19.351562 10.472656 19.515625 10.472656 19.539062 10.472656 19.558594 10.472656 19.582031 10.464844 19.773438 10.429688 19.898438 10.242188 19.859375 10.050781zM15.03125 11.988281C13.941406 11.761719 13.105469 10.503906 13.105469 8.992188 13.105469 8.523438 13.183594 8.074219 13.332031 7.675781 13.824219 7.972656 14.40625 8.15625 15.03125 8.203125zM13.640625 7.039062C14.0625 6.382812 14.683594 5.964844 15.382812 5.964844 16.078125 5.964844 16.703125 6.382812 17.121094 7.039062 16.636719 7.34375 16.019531 7.515625 15.382812 7.515625 14.742188 7.515625 14.125 7.34375 13.640625 7.039062zM15.734375 11.988281L15.734375 8.203125C16.355469 8.15625 16.941406 7.972656 17.433594 7.675781 17.578125 8.074219 17.660156 8.523438 17.660156 8.996094 17.660156 10.503906 16.824219 11.761719 15.734375 11.988281zM15.734375 11.988281"/>
</svg>

<svg xmlns="http://www.w3.org/2000/svg" width="32" height="32" viewBox="0 0 24 24">
    <path d="M15.383 0c-4.754 0-8.621 3.867-8.621 8.617 0 2.25.867 4.301 2.285 5.84l-1.098 1.098a.229.229 0 0 0-.054.07 1.47 1.47 0 0 0-.778-.219c-.398 0-.77.153-1.047.434L.434 21.473A1.468 1.468 0 0 0 0 22.52c0 .394.152.77.434 1.046.277.282.652.434 1.046.434.395 0 .766-.152 1.047-.434L8.16 17.93c.281-.278.434-.649.434-1.047a1.47 1.47 0 0 0-.219-.778.229.229 0 0 0 .07-.054l1.098-1.098a8.593 8.593 0 0 0 5.84 2.285c4.75 0 8.617-3.867 8.617-8.62C24 3.867 20.133 0 15.383 0zM2.027 23.07a.771.771 0 0 1-.547.227.787.787 0 0 1-.55-.227.787.787 0 0 1-.227-.55c0-.207.082-.403.227-.547L5.94 16.96l1.098 1.098zm5.637-5.636l-.129.125-1.094-1.094.125-.13a.778.778 0 0 1 1.098 0 .778.778 0 0 1 0 1.099zm7.719-.903c-4.363 0-7.914-3.55-7.914-7.914 0-4.363 3.55-7.914 7.914-7.914 4.363 0 7.914 3.55 7.914 7.914 0 4.363-3.55 7.914-7.914 7.914zm0 0"/>
    <path d="M22.219 6.64a7.136 7.136 0 0 0-2.883-3.937.35.35 0 0 0-.488.094.35.35 0 0 0 .093.488 6.446 6.446 0 0 1 2.602 3.55.35.35 0 0 0 .336.255.284.284 0 0 0 .098-.016.348.348 0 0 0 .242-.433zm0 0M14.668 14.988a6.331 6.331 0 0 1-3.723-1.742.351.351 0 0 0-.496.012.353.353 0 0 0 .008.5 7.176 7.176 0 0 0 4.133 1.933h.039c.18 0 .332-.132.351-.312a.357.357 0 0 0-.312-.39zm0 0M9.684 11.559a.358.358 0 0 0-.477-.153.354.354 0 0 0-.148.477c.12.234.257.469.406.687a.35.35 0 0 0 .293.157.352.352 0 0 0 .293-.547 6.175 6.175 0 0 1-.367-.621zm0 0M16.809 2.367c.23.051.46.117.683.196a.352.352 0 0 0 .234-.664 7.437 7.437 0 0 0-.765-.22.353.353 0 0 0-.152.688zm0 0M19.484 8.172a.356.356 0 0 0-.168-.235.342.342 0 0 0-.289-.027l-.738.246c-.059-.3-.14-.582-.25-.847l.508-.254a.377.377 0 0 0 .156-.157l.75-1.503a.35.35 0 0 0-.156-.473.354.354 0 0 0-.473.156l-.699 1.399-.406.203a3.178 3.178 0 0 0-1.164-1.117l.644-1.297a.356.356 0 0 0-.156-.473.352.352 0 0 0-.473.16l-.683 1.363a2.4 2.4 0 0 0-1.012 0l-.68-1.363a.354.354 0 0 0-.472-.16.354.354 0 0 0-.16.473l.648 1.296c-.461.247-.86.633-1.168 1.118l-.406-.203-.7-1.399a.354.354 0 0 0-.472-.156.354.354 0 0 0-.156.473l.754 1.503a.337.337 0 0 0 .156.157l.504.254c-.11.265-.192.546-.246.847l-.743-.246a.333.333 0 0 0-.285.027.35.35 0 0 0-.172.235l-.375 1.879a.35.35 0 0 0 .278.414.35.35 0 0 0 .414-.273l.297-1.489.511.172c0 .04-.004.078-.004.117 0 .426.059.832.16 1.211a.295.295 0 0 0-.054.043L11.75 11a.349.349 0 0 0-.05.43l1.124 1.879c.067.109.184.171.305.171a.351.351 0 0 0 .3-.535l-.984-1.64.383-.387c.524 1.086 1.473 1.809 2.555 1.809s2.031-.723 2.555-1.809l.382.387-.988 1.64a.353.353 0 1 0 .605.363l1.13-1.878a.355.355 0 0 0-.055-.43l-.75-.754a.559.559 0 0 0-.059-.043c.106-.379.16-.785.16-1.21v-.118l.508-.172.297 1.488a.355.355 0 0 0 .348.282c.023 0 .043 0 .066-.008a.35.35 0 0 0 .277-.414zm-4.453 3.816c-1.09-.226-1.926-1.484-1.926-2.996 0-.469.079-.918.227-1.316.492.297 1.074.48 1.7.527zm-1.39-4.949c.421-.656 1.043-1.074 1.742-1.074.695 0 1.32.418 1.738 1.074-.484.305-1.101.477-1.738.477-.64 0-1.258-.172-1.742-.477zm2.093 4.95V8.202a3.86 3.86 0 0 0 1.7-.527c.144.398.226.847.226 1.32 0 1.508-.836 2.766-1.926 2.992zm0 0"/>
</svg>
